X: 21111
Q: "Strathspey."
M: C
L: 1/8
K: A
E<CC>B, B,>CE<C | ECC<c B>AF2 |\
E<CC>B, A,>CE<C | {AB}c>BA<F E<CB,2 |\
E<CC>B, A,>CE<C | E<CC<c B>AF2 |\
E<CC>B, A,>CE<C | {AB}c>BA<F E<CB, |]
E |\
c<ae>c d>Bc>A | B>GA>F E<C B,2 |]


